public/assets/arverify.svg

<svg width="53" height="16" viewBox="0 0 53 16" fill="none" xmlns="http://www.w3.org/2000/svg">
<path d="M7.8939 12.2364L7.29299 10.6909H4.29939L3.73126 12.2364H1.6991L4.94399 4.36426H6.75764L9.96976 12.2364H7.8939ZM5.81804 6.46572L4.83474 9.16759H6.77949L5.81804 6.46572Z" fill="#5A5A5A" fill-opacity="0.64"/>
<path d="M14.0448 8.20022C13.9629 8.17798 13.8864 8.1613 13.8099 8.15574C13.7335 8.15018 13.657 8.14462 13.586 8.14462C13.3456 8.14462 13.1435 8.1891 12.9796 8.27805C12.8157 8.367 12.6846 8.47263 12.5863 8.6005C12.4879 8.72836 12.4169 8.86179 12.3732 9.01189C12.3295 9.162 12.3077 9.28986 12.3077 9.40105V12.2419H10.5159V6.71029H12.2421V7.51085H12.264C12.4005 7.22732 12.5972 6.99383 12.8539 6.81592C13.1107 6.63802 13.4057 6.54907 13.7389 6.54907C13.8099 6.54907 13.8809 6.55463 13.952 6.56019C14.023 6.56575 14.0776 6.57687 14.1213 6.59355L14.0448 8.20022Z" fill="#5A5A5A" fill-opacity="0.64"/>
<path d="M15.3288 8.07791C15.8204 8.57826 16.3121 9.07861 16.8037 9.57896C17.5849 10.374 18.3661 11.1689 19.1527 11.9695C19.333 12.153 19.5133 12.3364 19.6935 12.5199C20.2125 13.048 21.0975 13.048 21.6164 12.5199C21.906 12.2252 22.2283 11.9528 22.4905 11.6304C24.5445 9.11752 28.3029 3.30237 28.3084 3.29681C28.8109 2.78535 26.7296 1.05081 26.1888 1.59563C25.8993 1.89028 21.5072 8.70613 20.7752 9.45109C20.4201 9.81245 20.0541 10.1683 19.7045 10.5407C19.699 10.5463 19.6935 10.5519 19.6881 10.5574C20.3272 10.5574 20.9664 10.5574 21.611 10.5574C21.1193 10.0571 20.6277 9.55672 20.136 9.05637C19.3548 8.26137 18.5737 7.46638 17.787 6.66582C17.6067 6.48236 17.4265 6.2989 17.2462 6.11544C16.7491 5.60953 14.7934 7.53309 15.3288 8.07791Z" fill="#5A5A5A" fill-opacity="0.64"/>
<path d="M32.0284 9.52346C32.0284 9.59573 32.0284 9.67356 32.0284 9.74583C32.0284 9.81811 32.023 9.89038 32.0175 9.95709H28.0788C28.0952 10.1128 28.1389 10.2517 28.2154 10.3796C28.2919 10.5075 28.3902 10.6131 28.5104 10.7076C28.6306 10.8021 28.7672 10.8744 28.9147 10.9244C29.0621 10.9745 29.2206 11.0023 29.379 11.0023C29.6631 11.0023 29.9034 10.9467 30.1001 10.841C30.2967 10.7354 30.4552 10.5964 30.5808 10.4241L31.8263 11.2246C31.5696 11.6027 31.2363 11.8918 30.8157 12.0975C30.3951 12.3032 29.9089 12.4032 29.3571 12.4032C28.9474 12.4032 28.565 12.3365 28.199 12.2087C27.833 12.0808 27.5162 11.8918 27.243 11.6416C26.9699 11.3914 26.7568 11.0857 26.5984 10.7243C26.44 10.3629 26.3635 9.94597 26.3635 9.47898C26.3635 9.02867 26.44 8.61727 26.593 8.25035C26.7459 7.88343 26.9535 7.5721 27.2157 7.31637C27.4779 7.06064 27.7893 6.8605 28.1444 6.72151C28.4995 6.58253 28.8873 6.51025 29.3025 6.51025C29.7013 6.51025 30.0728 6.57697 30.406 6.71595C30.7392 6.85494 31.0288 7.04952 31.2691 7.31081C31.5095 7.5721 31.6952 7.88343 31.8318 8.25591C31.9629 8.62839 32.0284 9.05091 32.0284 9.52346ZM30.3787 8.82297C30.3787 8.53388 30.2913 8.28371 30.111 8.07801C29.9307 7.87231 29.6631 7.76668 29.308 7.76668C29.1332 7.76668 28.9747 7.79448 28.8272 7.85007C28.6798 7.90567 28.5541 7.9835 28.4449 8.07801C28.3356 8.17252 28.2482 8.28927 28.1826 8.41713C28.1171 8.545 28.0788 8.68398 28.0734 8.82297H30.3787Z" fill="#5A5A5A" fill-opacity="0.64"/>
<path d="M36.3988 8.18923C36.3169 8.16699 36.2404 8.15032 36.1639 8.14476C36.0875 8.1392 36.011 8.13364 35.94 8.13364C35.6996 8.13364 35.4975 8.17811 35.3336 8.26706C35.1697 8.35601 35.0386 8.46164 34.9403 8.58951C34.8419 8.71738 34.7709 8.8508 34.7272 9.00091C34.6835 9.15101 34.6617 9.27888 34.6617 9.39007V12.2309H32.8699V6.69931H34.5961V7.49986H34.618C34.7545 7.21633 34.9512 6.98284 35.2079 6.80494C35.4647 6.62704 35.7597 6.53809 36.0929 6.53809C36.1639 6.53809 36.2349 6.54365 36.306 6.54921C36.377 6.55476 36.4316 6.56588 36.4753 6.58256L36.3988 8.18923Z" fill="#5A5A5A" fill-opacity="0.64"/>
<path d="M39.141 4.92013C39.141 5.05911 39.1137 5.19254 39.0591 5.31485C39.0045 5.43715 38.9335 5.54278 38.8406 5.63173C38.7477 5.72069 38.6385 5.79296 38.5128 5.84299C38.3872 5.89303 38.2506 5.92082 38.114 5.92082C37.8245 5.92082 37.5787 5.82075 37.382 5.62617C37.1854 5.43159 37.087 5.19254 37.087 4.92013C37.087 4.7867 37.1143 4.65884 37.1635 4.53653C37.2127 4.41422 37.2892 4.30859 37.382 4.21964C37.4749 4.13069 37.5841 4.05842 37.7098 4.00282C37.8354 3.94723 37.9665 3.91943 38.114 3.91943C38.2506 3.91943 38.3872 3.94723 38.5128 3.99727C38.6385 4.0473 38.7477 4.11957 38.8406 4.20852C38.9335 4.29747 39.0045 4.4031 39.0591 4.52541C39.1137 4.64772 39.141 4.78114 39.141 4.92013ZM37.2181 12.2252V6.68802H39.0099V12.2252H37.2181Z" fill="#5A5A5A" fill-opacity="0.64"/>
<path d="M43.8061 5.16479C43.7405 5.14255 43.664 5.12587 43.5766 5.1092C43.4892 5.09252 43.4018 5.08696 43.3144 5.08696C43.1451 5.08696 43.014 5.11476 42.9102 5.17591C42.8064 5.23706 42.7299 5.31489 42.6698 5.41496C42.6097 5.51503 42.5715 5.62622 42.5496 5.75409C42.5278 5.88195 42.5169 6.00426 42.5169 6.13213V6.68807H43.7296V8.04457H42.5169V12.2252H40.7251V8.04457H39.7308V6.68807H40.7251V6.15437C40.7251 5.81524 40.7633 5.48724 40.8343 5.18147C40.9053 4.8757 41.031 4.60329 41.2113 4.36979C41.3915 4.1363 41.6319 3.95284 41.9323 3.81385C42.2328 3.67487 42.6097 3.60815 43.0631 3.60815C43.2161 3.60815 43.3691 3.61927 43.5165 3.63595C43.664 3.65263 43.8006 3.68043 43.9263 3.71934L43.8061 5.16479Z" fill="#5A5A5A" fill-opacity="0.64"/>
<path d="M48.0237 13.0591C47.9144 13.3482 47.7942 13.6039 47.6576 13.8318C47.5211 14.0598 47.3627 14.2488 47.1769 14.41C46.9912 14.5712 46.7727 14.688 46.5214 14.7714C46.2701 14.8548 45.9751 14.8937 45.631 14.8937C45.4616 14.8937 45.2923 14.8826 45.112 14.8603C44.9317 14.8381 44.7788 14.8103 44.6477 14.7714L44.8443 13.237C44.9317 13.2648 45.03 13.2926 45.1338 13.3093C45.2376 13.3259 45.336 13.3371 45.4234 13.3371C45.702 13.3371 45.8986 13.2703 46.0243 13.1425C46.1499 13.0146 46.2537 12.8311 46.3411 12.5921L46.5159 12.1362L44.2434 6.68799H46.2319L47.4446 10.246H47.4774L48.559 6.68799H50.4601L48.0237 13.0591Z" fill="#5A5A5A" fill-opacity="0.64"/>
</svg>

<svg width="53" height="16" fill="none" xmlns="http://www.w3.org/2000/svg">
  <path
    d="m7.894 12.236-.601-1.545H4.299l-.568 1.545H1.7l3.245-7.872h1.814l3.212 7.872H7.894Zm-2.076-5.77-.983 2.702h1.944l-.961-2.702ZM14.045 8.2a1.24 1.24 0 0 0-.235-.044 3.17 3.17 0 0 0-.224-.011c-.24 0-.443.044-.606.133a1.214 1.214 0 0 0-.607.734c-.043.15-.065.278-.065.389v2.84h-1.792v-5.53h1.726v.8h.022c.136-.284.333-.517.59-.695.257-.178.552-.267.885-.267.07 0 .142.006.213.011a.61.61 0 0 1 .17.034L14.044 8.2ZM15.329 8.078l1.475 1.501 2.349 2.39.54.55a1.365 1.365 0 0 0 1.923 0c.29-.294.612-.566.875-.889 2.053-2.512 5.812-8.328 5.817-8.333.503-.512-1.578-2.246-2.12-1.701-.289.294-4.68 7.11-5.413 7.855-.355.361-.72.717-1.07 1.09l-.017.016h1.923l-1.475-1.5-2.349-2.391-.54-.55c-.498-.506-2.454 1.417-1.918 1.962ZM32.028 9.523v.223c0 .072-.005.144-.01.211h-3.94c.017.156.06.295.137.423.077.127.175.233.295.328a1.452 1.452 0 0 0 .869.295c.284 0 .524-.056.721-.162a1.41 1.41 0 0 0 .48-.417l1.246.8c-.256.379-.59.668-1.01.873-.42.206-.907.306-1.459.306-.41 0-.792-.067-1.158-.194a2.728 2.728 0 0 1-.956-.567 2.684 2.684 0 0 1-.645-.918c-.158-.361-.235-.778-.235-1.245 0-.45.077-.862.23-1.229a2.78 2.78 0 0 1 .623-.934 2.76 2.76 0 0 1 .928-.594 3.158 3.158 0 0 1 1.159-.212c.398 0 .77.067 1.103.206.333.139.623.334.863.595.24.261.426.572.563.945.13.372.196.795.196 1.267Zm-1.65-.7c0-.29-.087-.54-.267-.745-.18-.206-.448-.311-.803-.311-.175 0-.333.027-.48.083a1.256 1.256 0 0 0-.383.228c-.11.095-.197.211-.262.34a.978.978 0 0 0-.11.405h2.306ZM36.399 8.19a1.24 1.24 0 0 0-.235-.045 3.17 3.17 0 0 0-.224-.011c-.24 0-.442.044-.606.133a1.214 1.214 0 0 0-.607.734c-.043.15-.065.278-.065.39v2.84H32.87V6.699h1.726v.8h.022c.136-.283.333-.516.59-.694.257-.178.552-.267.885-.267.07 0 .142.006.213.011a.609.609 0 0 1 .17.034l-.077 1.606ZM39.141 4.92a.988.988 0 0 1-.628.923c-.126.05-.262.078-.399.078-.29 0-.535-.1-.732-.295a.963.963 0 0 1-.295-.706c0-.133.027-.261.076-.383a.911.911 0 0 1 .219-.317 1.13 1.13 0 0 1 .328-.217.975.975 0 0 1 .404-.084c.137 0 .273.028.399.078s.235.123.328.212a.988.988 0 0 1 .3.711Zm-1.923 7.305V6.688h1.792v5.537h-1.792ZM43.806 5.165a1.758 1.758 0 0 0-.23-.056 1.392 1.392 0 0 0-.262-.022c-.169 0-.3.028-.404.089a.667.667 0 0 0-.24.239.96.96 0 0 0-.12.34c-.022.127-.033.25-.033.377v.556h1.213v1.357h-1.213v4.18h-1.792v-4.18h-.994V6.688h.994v-.534c0-.339.038-.667.11-.973.07-.305.196-.578.376-.811.18-.234.42-.417.721-.556.3-.14.678-.206 1.131-.206.153 0 .306.011.453.028.148.017.285.044.41.083l-.12 1.446ZM48.024 13.06c-.11.288-.23.544-.366.772a2.352 2.352 0 0 1-.481.578 1.89 1.89 0 0 1-.656.361 2.832 2.832 0 0 1-.89.123c-.17 0-.339-.011-.519-.034a2.894 2.894 0 0 1-.464-.089l.196-1.534a2.014 2.014 0 0 0 .58.1c.278 0 .475-.067.6-.194.126-.128.23-.312.317-.55l.175-.457-2.273-5.448h1.989l1.213 3.558h.032l1.082-3.558h1.901l-2.436 6.371Z"
    fill="#5A5A5A" fill-opacity=".64" /></svg>
